www/assets/icons/sensor_door.svg

<svg xmlns="http://www.w3.org/2000/svg" width="24" height="24" viewBox="0 0 24 24" fill='currentColor'><path d="M18 2H6c-1.1 0-2 .9-2 2v18h16V4c0-1.1-.9-2-2-2m-2.5 11.5c-.83 0-1.5-.67-1.5-1.5s.67-1.5 1.5-1.5 1.5.67 1.5 1.5-.67 1.5-1.5 1.5"/></svg>

<svg width="24" height="24" viewBox="0 0 24 24" xmlns="http://www.w3.org/2000/svg" fill='currentColor'><path d="M18 2H6C4.9 2 4 2.9 4 4V22H20V4C20 2.9 19.1 2 18 2ZM15.5 13.5C14.67 13.5 14 12.83 14 12C14 11.17 14.67 10.5 15.5 10.5C16.33 10.5 17 11.17 17 12C17 12.83 16.33 13.5 15.5 13.5Z"/></svg>
